icons/CalendarTo_filled.svg

<svg width="24" height="24" viewBox="0 0 24 24" fill="none" xmlns="http://www.w3.org/2000/svg">
<path fill-rule="evenodd" clip-rule="evenodd" d="M8 2.50002C8.41421 2.50002 8.75 2.8358 8.75 3.25002V4.50002H15.25V3.25002C15.25 2.8358 15.5858 2.50002 16 2.50002C16.4142 2.50002 16.75 2.8358 16.75 3.25002V4.50002H18C19.5188 4.50002 20.75 5.73123 20.75 7.25002V11.25V12V12.799C20.6042 12.465 20.3946 12.152 20.1213 11.8787C18.9497 10.7071 17.0503 10.7071 15.8787 11.8787L15.7574 12H4.75V19.25C4.75 19.9404 5.30964 20.5 6 20.5H12.2574L13.7574 22H6C4.48122 22 3.25 20.7688 3.25 19.25V12V11.25V7.25002C3.25 5.73123 4.48122 4.50002 6 4.50002H7.25V3.25002C7.25 2.8358 7.58579 2.50002 8 2.50002ZM7.25 15.25C7.25 14.8358 7.58579 14.5 8 14.5H10C10.4142 14.5 10.75 14.8358 10.75 15.25V17.25C10.75 17.6642 10.4142 18 10 18H8C7.58579 18 7.25 17.6642 7.25 17.25V15.25ZM13.4697 17.4697C13.1768 17.7626 13.1768 18.2374 13.4697 18.5303L17.4697 22.5303C17.7626 22.8232 18.2375 22.8232 18.5304 22.5303C18.8232 22.2374 18.8232 21.7626 18.5304 21.4697L15.8107 18.75H22C22.4142 18.75 22.75 18.4142 22.75 18C22.75 17.5858 22.4142 17.25 22 17.25H15.8107L18.5304 14.5303C18.8232 14.2374 18.8232 13.7626 18.5304 13.4697C18.2375 13.1768 17.7626 13.1768 17.4697 13.4697L13.4697 17.4697Z" fill="#002B51"/>
</svg>

<svg width="24" height="24" viewBox="0 0 24 24" fill="none" xmlns="http://www.w3.org/2000/svg">
<path fill-rule="evenodd" clip-rule="evenodd" d="M8,2.50002c0.41421,0 0.75,0.33578 0.75,0.75v1.25h6.5v-1.25c0,-0.41422 0.3358,-0.75 0.75,-0.75c0.4142,0 0.75,0.33578 0.75,0.75v1.25h1.25c1.5188,0 2.75,1.23121 2.75,2.75v3.99998v0.75v0.799c-0.1458,-0.334 -0.3554,-0.647 -0.6287,-0.9203c-1.1716,-1.1716 -3.071,-1.1716 -4.2426,0l-0.1213,0.1213h-11.0074v7.25c0,0.6904 0.55964,1.25 1.25,1.25h6.2574l1.5,1.5h-7.7574c-1.51878,0 -2.75,-1.2312 -2.75,-2.75v-7.25v-0.75v-3.99998c0,-1.51879 1.23122,-2.75 2.75,-2.75h1.25v-1.25c0,-0.41422 0.33579,-0.75 0.75,-0.75zM7.25,15.25c0,-0.4142 0.33579,-0.75 0.75,-0.75h2c0.4142,0 0.75,0.3358 0.75,0.75v2c0,0.4142 -0.3358,0.75 -0.75,0.75h-2c-0.41421,0 -0.75,-0.3358 -0.75,-0.75zM17.4697,13.4697c0.2929,-0.2929 0.7678,-0.2929 1.0607,0c0.2928,0.2929 0.2928,0.7677 0,1.0606l-2.7197,2.7197h6.1893c0.4142,0 0.75,0.3358 0.75,0.75c0,0.4142 -0.3358,0.75 -0.75,0.75h-6.1893l2.7197,2.7197c0.2928,0.2929 0.2928,0.7677 0,1.0606c-0.2929,0.2929 -0.7678,0.2929 -1.0607,0l-4,-4c-0.2929,-0.2929 -0.2929,-0.7677 0,-1.0606z" fill="#002B51"/>
</svg>
